X: 3104
T: The YETTS OF MUCKART
Q:"Reel."
R: Reel.
%R:reel
B: James Kerr "Merry Melodies" v.3 p.13 #104
Z: 2016 John Chambers <jc:trillian.mit.edu>
M: C
L: 1/8
K: A
ue |\
A/A/A (cB) A2(Aa) | f2(ec) fBBa |\
A/A/A (cB) A2(AF) | EFAB cAA ::\
f |\
ecac f2(ec) |
A/A/A (ae) fBBf |\
[1 ecae faec | afec eAA :|\
[2 Acea faea | f2(ec) eAA |]

%%sep 1 1 500
%%sep 1 1 500

